X:55
T:Sir Roger De Coverly
T:Sir Roger De Coverley
M:9/8
L:1/8
R:slip jig
K:Gmaj
|:GFG G2e dBG|E2A ABA FED|GFG BGB def|gdB GAG FED:|
|:dBd ece dBG|E2A ABA FED|dBd ece def|gdB GAG FED:|
|:dcB cBA BAG|E2A A2B cBA|dcB cBA BAG|D2G G2A BAG:|
